src/assets/img/providers/igrosoft-g.svg

<svg width="80" height="30" viewBox="0 0 80 30" fill="none" xmlns="http://www.w3.org/2000/svg">
<path fill-rule="evenodd" clip-rule="evenodd" d="M39.1483 0.000976562C49.2826 0.000976562 58.809 1.52523 65.9841 4.29659C73.3214 7.10259 77.3346 10.9132 77.3346 15.001C77.3346 19.0887 73.3214 22.8647 65.9841 25.7054C58.809 28.4767 49.2826 30.001 39.1483 30.001C29.0139 30.001 19.4876 28.4767 12.3124 25.7054C5.01567 22.8994 0.961914 19.0887 0.961914 15.001C0.961914 10.9132 4.97513 7.13723 12.3124 4.29659C19.4876 1.52523 29.0139 0.000976562 39.1483 0.000976562ZM2.17804 15.001C2.17804 22.6915 18.7579 28.9617 39.1483 28.9617C59.5386 28.9617 76.1185 22.6915 76.1185 15.001C76.1185 7.31044 59.5386 1.04024 39.1483 1.04024C18.7579 1.04024 2.17804 7.31044 2.17804 15.001ZM70.3229 8.41879C69.7149 8.52272 69.0257 8.55736 68.2555 8.592C68.2555 8.21094 68.1339 7.86452 67.8907 7.58738C67.6475 7.31025 67.2826 7.06775 66.7962 6.92919C66.3097 6.79062 65.7827 6.68669 65.1341 6.68669C63.918 6.68669 62.9046 6.92919 62.1344 7.44882C61.0398 8.14166 60.1885 9.42341 59.621 11.2594H58.0806L57.959 11.6059H59.5399L55.8916 23.2109C56.9861 23.0724 58.2022 23.0031 59.4994 22.9684L63.0667 11.6059H63.9585H65.0531H65.7827L63.8369 17.3218C63.7153 17.7028 63.6342 18.0839 63.6342 18.3957C63.6342 18.95 63.8369 19.4003 64.2018 19.7467C64.5666 20.0931 65.1341 20.2317 65.8638 20.2317C66.634 20.2317 67.2826 20.0585 67.8096 19.6774C68.3366 19.331 68.742 18.8114 69.0257 18.1532L69.3906 17.2179H69.0257L68.7014 17.9453C68.5393 18.3264 68.3366 18.6382 68.0528 18.8807C67.7691 19.1232 67.5258 19.2617 67.2421 19.2617C66.9583 19.2617 66.8367 19.1232 66.8367 18.8807C66.8367 18.7767 66.8367 18.6728 66.8772 18.5689L69.269 11.6059H71.2958L71.3364 11.2594H69.35L70.3229 8.41879ZM64.9314 9.97768C65.2152 10.1855 65.6206 10.2895 66.107 10.2895H66.1476L65.8233 11.2248H65.1341H63.9991H63.1073L63.8369 8.97306C64.1207 8.10701 64.4045 7.55274 64.8098 7.27561C65.0531 7.1024 65.3774 6.99847 65.7827 6.99847C65.9449 6.99847 66.107 7.03311 66.3097 7.1024C65.7422 7.27561 65.3368 7.55274 65.0125 7.89916C64.6882 8.24558 64.5261 8.66129 64.5261 9.11163C64.4855 9.49269 64.6477 9.80447 64.9314 9.97768ZM11.7053 19.4003C11.6243 19.331 11.5837 19.1924 11.5837 19.0192C11.5837 18.846 11.6243 18.5689 11.7459 18.1878L14.3808 9.73518C14.5024 9.31947 14.6646 9.0077 14.7862 8.79984C14.9078 8.59199 15.1105 8.48807 15.3537 8.38414C15.5969 8.31486 15.9618 8.28022 16.4482 8.24557L16.5293 7.89915C15.5564 7.9338 14.2997 7.9338 12.7999 7.9338C11.1784 7.9338 10.0028 7.9338 9.27309 7.89915L9.15148 8.24557C9.47578 8.24557 9.75954 8.28022 9.96223 8.31486C10.1649 8.3495 10.2865 8.41878 10.3676 8.48807C10.4487 8.59199 10.4892 8.69592 10.4892 8.86913C10.4892 9.04234 10.4487 9.31947 10.3271 9.70054L7.69213 18.1532C7.57052 18.5689 7.40837 18.8806 7.28676 19.0885C7.12461 19.2964 6.96246 19.4349 6.71923 19.5042C6.47601 19.5735 6.15171 19.6081 5.66526 19.6428L5.58418 19.9892C6.35439 19.9545 7.52998 19.9545 9.11094 19.9545C10.7324 19.9545 11.9891 19.9545 12.8404 19.9892L12.9215 19.6428C12.5972 19.6428 12.3134 19.6081 12.1107 19.5735C11.9486 19.5388 11.7864 19.5042 11.7053 19.4003ZM46.4871 12.957C46.4871 13.3727 46.6087 13.7191 46.8114 13.9962C47.0547 14.2734 47.3384 14.3773 47.7438 14.3773C48.0275 14.3773 48.3113 14.308 48.514 14.1694C48.7167 14.0309 48.8788 13.823 49.0005 13.5805C49.1221 13.338 49.1626 13.0955 49.1626 12.853C49.1626 12.1602 48.8383 11.6406 48.1897 11.3288C47.5411 11.017 46.7304 10.8784 45.7575 10.8784C44.9062 10.8784 44.1765 10.9824 43.5684 11.2249C42.9604 11.4327 42.5145 11.7445 42.2307 12.1602C41.9469 12.5413 41.7848 12.9916 41.7848 13.4766C41.7848 13.7537 41.8253 14.0655 41.9469 14.308C42.028 14.5851 42.1496 14.8276 42.3118 15.0355C42.3787 15.1212 42.4525 15.2306 42.5389 15.3587L42.5391 15.3589L42.5392 15.3591L42.5395 15.3596L42.5398 15.3601L42.5399 15.3602L42.5399 15.3602C42.6627 15.5423 42.811 15.762 43.0009 16.0055C43.3657 16.5251 43.6495 16.9754 43.8522 17.3911C44.0549 17.8069 44.136 18.1879 44.136 18.5343C44.136 18.9154 44.0143 19.2272 43.7306 19.4697C43.4468 19.7122 43.1225 19.8161 42.7171 19.8161C42.4334 19.8161 42.2307 19.7814 42.028 19.6775C42.1091 19.539 42.1901 19.4004 42.2712 19.1925C42.3117 19.0888 42.3522 18.9936 42.3926 18.8985L42.3927 18.8985L42.3927 18.8984L42.3927 18.8984L42.3927 18.8983L42.3928 18.8981L42.3928 18.8981C42.4334 18.8028 42.4739 18.7075 42.5145 18.6036C42.5955 18.3958 42.5955 18.1879 42.5955 17.9454C42.5955 17.4951 42.4739 17.1487 42.2307 16.8715C41.9875 16.5944 41.6632 16.4558 41.2983 16.4558C41.2173 16.4558 41.1362 16.4558 41.0551 16.4905C41.501 15.5551 41.7442 14.6544 41.7442 13.7537C41.7442 12.8184 41.4605 12.0909 40.8524 11.6059C40.2443 11.1209 39.3525 10.8438 38.2175 10.8438C36.7176 10.8438 35.4609 11.1902 34.4069 11.8484C34.0421 12.0909 33.6773 12.368 33.3935 12.6452V12.5066C33.3935 12.1948 33.3124 11.9177 33.1503 11.6752C32.9881 11.4327 32.7854 11.2249 32.5017 11.0863C32.2179 10.9477 31.8531 10.8784 31.4477 10.8784C31.0018 10.8784 30.637 10.9477 30.3127 11.0516C29.9884 11.1902 29.6641 11.3634 29.3803 11.6752C29.0965 11.9523 28.8128 12.3334 28.5695 12.8184V12.5066C28.5695 12.0216 28.4074 11.6406 28.1236 11.3288C27.8399 11.017 27.3534 10.8784 26.7048 10.8784C25.9751 10.8784 25.3671 11.017 24.8806 11.2941L24.8806 11.2941C24.9212 11.1556 24.9617 11.017 25.0428 10.8784C23.9483 11.017 22.7727 11.1209 21.4349 11.1209L21.1917 11.8484C21.1106 11.1902 20.7053 10.8784 19.935 10.8784C19.0027 10.8784 18.0703 11.2595 17.0569 11.987C16.0434 12.7145 15.2327 13.6498 14.5436 14.793C13.8544 15.9362 13.5301 17.0101 13.5301 18.084C13.5301 18.7768 13.7328 19.2965 14.1382 19.6775C14.5436 20.0239 15.1516 20.2318 16.0029 20.2318C16.692 20.2318 17.3001 20.0932 17.7866 19.7814C18.1919 19.539 18.5973 19.2618 18.8811 18.8808L17.9082 21.6175C17.7055 22.3103 17.4217 22.7607 17.138 22.9685C16.9353 23.1071 16.692 23.1764 16.3677 23.1764C16.2715 23.1764 16.1753 23.1547 16.059 23.1285L16.0586 23.1284C16.028 23.1215 15.9961 23.1143 15.9624 23.1071C16.4083 22.9685 16.7326 22.7607 17.0163 22.4489C17.2596 22.1718 17.3812 21.8253 17.3812 21.4789C17.3812 21.1671 17.2596 20.9593 17.0569 20.7861C16.7731 20.6475 16.4488 20.5436 16.084 20.5436C15.7597 20.5436 15.4354 20.6129 15.1922 20.7514C14.9489 20.89 14.7057 21.0632 14.5841 21.2711C14.4219 21.4789 14.3814 21.6868 14.3814 21.9293C14.3814 22.241 14.4625 22.5182 14.6652 22.726L14.6858 22.7507C14.8792 22.9826 15.0438 23.1799 15.4354 23.2803C15.8002 23.4189 16.3677 23.5921 16.8947 23.5921H17.1785C19.854 23.211 21.0296 22.8992 22.2862 18.95L22.3392 18.7914C22.6042 17.9979 22.6173 17.9588 24.6779 12.0563C24.8401 11.9523 25.0022 11.8831 25.1644 11.8831C25.3265 11.8831 25.4076 11.987 25.4076 12.1602C25.4076 12.2314 25.3886 12.319 25.3635 12.4339L25.3635 12.434L25.3635 12.434L25.3635 12.4341L25.3635 12.4342L25.3635 12.4342C25.352 12.4869 25.3393 12.5453 25.3265 12.6105L22.8943 19.9893H26.4211L27.8804 15.2087C28.3263 14.0309 28.7722 13.1302 29.1776 12.5413C29.583 11.9523 29.9884 11.6059 30.3127 11.4674C30.637 11.3288 31.0423 11.2595 31.4477 11.2595C31.4882 11.2595 31.6098 11.2941 31.7315 11.3288L31.7315 11.3288C31.3261 11.3981 30.9613 11.5366 30.637 11.7445C30.3127 11.9523 30.0289 12.1948 29.8262 12.5066C29.6235 12.8184 29.5424 13.1302 29.5424 13.442C29.5424 13.8577 29.6641 14.1694 29.9073 14.4119C30.1505 14.6198 30.5153 14.7237 31.0018 14.7237C31.3261 14.7237 31.6099 14.6891 31.8531 14.5851C31.3666 15.5205 31.1639 16.4558 31.1639 17.3911C31.1639 18.3265 31.4477 19.0193 32.0558 19.539C32.6638 20.0239 33.5557 20.3011 34.6907 20.3011C36.1906 20.3011 37.4473 19.9547 38.5012 19.2965C39.0282 18.9847 39.4741 18.6036 39.839 18.1879C39.8795 18.9154 40.2038 19.4697 40.8929 19.7814C41.5821 20.1279 42.4739 20.3011 43.5279 20.3011C44.3792 20.3011 45.1089 20.1972 45.6764 19.9547C46.2844 19.7122 46.7304 19.435 47.0141 19.0193C47.3384 18.6383 47.46 18.1879 47.46 17.7376C47.46 17.3565 47.379 16.9754 47.2168 16.5597C47.0547 16.144 46.7304 15.6244 46.2844 15.0008C46.2251 14.8994 46.1223 14.7609 45.992 14.5852L45.9919 14.5851C45.9442 14.5208 45.8928 14.4515 45.8385 14.3773C45.6358 14.1002 45.4737 13.823 45.3115 13.5459C45.1494 13.2687 45.1088 12.9916 45.1088 12.7145C45.1088 12.2641 45.2305 11.9177 45.4737 11.7098C45.7169 11.4674 46.0817 11.3634 46.5277 11.3634C46.7304 11.3634 46.8925 11.3981 47.0141 11.4327C46.852 11.5713 46.6898 11.8138 46.5682 12.0909C46.5682 12.2045 46.5504 12.3334 46.5315 12.4703L46.5315 12.4703V12.4704L46.5315 12.4704C46.51 12.6257 46.4871 12.7913 46.4871 12.957ZM20.9485 12.472L19.4081 16.8715C19.0838 17.7029 18.8 18.2572 18.5162 18.569C18.2325 18.8808 17.9892 19.054 17.746 19.054C17.5839 19.054 17.4623 18.9847 17.3812 18.8461C17.3001 18.7075 17.3001 18.465 17.3001 18.1533C17.3001 17.1833 17.5028 16.2133 17.8676 15.2087C18.273 14.2041 18.7189 13.3727 19.2459 12.7145C19.7729 12.0563 20.2188 11.7445 20.6242 11.7445C20.8674 11.7445 20.989 11.9177 20.989 12.2295C20.989 12.2988 20.989 12.368 20.9485 12.472ZM37.7716 15.659C37.3662 16.8369 36.8392 17.8761 36.3122 18.6729C35.7447 19.5043 35.2988 19.8854 34.9339 19.8854C34.8123 19.8854 34.6907 19.8161 34.6502 19.6775C34.5691 19.539 34.5691 19.2965 34.5691 18.95C34.5691 17.9454 34.7718 16.8369 35.2177 15.659C35.6231 14.4466 36.1501 13.4073 36.7176 12.5759C37.2851 11.7098 37.7716 11.2941 38.1364 11.2941C38.258 11.2941 38.3391 11.3634 38.3796 11.502C38.4202 11.6406 38.4607 11.8831 38.4607 12.2988C38.3796 13.3034 38.1769 14.4466 37.7716 15.659ZM58.3622 13.8231C58.3622 14.7584 58.119 15.7284 57.592 16.733C57.065 17.7376 56.2543 18.569 55.2408 19.2619C54.1868 19.9201 52.9302 20.2665 51.4303 20.2665C50.2952 20.2665 49.4034 19.9894 48.7953 19.5044C48.1873 18.9847 47.9035 18.2919 47.9035 17.3566C47.9035 16.3866 48.1467 15.4166 48.6737 14.412C49.2007 13.4074 49.9709 12.576 51.0249 11.9178C52.0789 11.2596 53.3356 10.9131 54.8354 10.9131C55.9705 10.9131 56.8623 11.1903 57.4704 11.6753C58.0784 12.1603 58.3622 12.8877 58.3622 13.8231ZM52.9707 18.673C53.4977 17.8762 54.0247 16.8369 54.4301 15.6591C54.8354 14.4466 55.0381 13.3034 55.1192 12.2988C55.1192 11.8831 55.0787 11.6406 55.0381 11.5021C54.9976 11.3635 54.9165 11.2942 54.7949 11.2942C54.4301 11.2942 53.9436 11.7099 53.3761 12.576C52.8086 13.4074 52.2816 14.4466 51.8762 15.6591C51.4303 16.8369 51.2276 17.9455 51.2276 18.9501C51.2276 19.2965 51.2276 19.539 51.3087 19.6776C51.3492 19.8161 51.4708 19.8854 51.5924 19.8854C51.9573 19.8854 52.4032 19.5044 52.9707 18.673ZM76.482 4.50425L76.3604 4.40033C76.6847 4.33104 76.8874 4.22712 77.0495 4.05391C77.2117 3.8807 77.2928 3.67285 77.2928 3.465C77.2928 3.15322 77.1712 2.91072 76.9279 2.77216C76.6847 2.59895 76.2793 2.52966 75.7929 2.52966H74.4551V5.88993H75.2254V4.57354H75.5497C75.6307 4.57354 75.6713 4.57354 75.7118 4.60818C75.7273 4.62141 75.7428 4.62959 75.756 4.63657C75.7774 4.64787 75.7929 4.65605 75.7929 4.67746L76.6036 5.78601C76.6442 5.85529 76.7252 5.88993 76.8469 5.88993H77.5765L76.6442 4.64282C76.5876 4.61867 76.5508 4.57767 76.52 4.54332C76.5066 4.52841 76.4943 4.51474 76.482 4.50425ZM76.0766 4.08855C75.955 4.12319 75.8334 4.12319 75.6713 4.12319H75.1848V3.01465H75.7523C75.9145 3.01465 76.0361 3.01465 76.1172 3.04929L76.3604 3.15322C76.4009 3.18786 76.482 3.25714 76.482 3.32643C76.5226 3.39571 76.5226 3.465 76.5226 3.56892C76.5226 3.67285 76.5226 3.74213 76.482 3.81141C76.4415 3.8807 76.4009 3.94998 76.3604 3.98462C76.3199 4.01927 76.1983 4.05391 76.0766 4.08855ZM78.1056 2.28654C78.3894 2.52903 78.6326 2.80617 78.7948 3.15259C78.9569 3.46436 79.038 3.84542 79.038 4.26112C79.038 4.64218 78.9569 4.9886 78.7948 5.33502C78.6326 5.6468 78.3894 5.95857 78.1056 6.20107C77.8219 6.44356 77.4976 6.65141 77.0922 6.78998C76.6868 6.92855 76.2814 6.99783 75.8355 6.99783C75.5518 6.99783 75.268 6.96319 74.9842 6.8939C74.7005 6.82462 74.4572 6.72069 74.214 6.61677C73.9708 6.51284 73.7681 6.37428 73.5654 6.20107C73.3627 6.02786 73.16 5.85465 73.0384 5.6468C72.9168 5.43895 72.7952 5.2311 72.7141 4.9886C72.633 4.74611 72.5925 4.50362 72.5925 4.26112C72.5925 4.01863 72.633 3.77614 72.7141 3.53365C72.7952 3.29115 72.9168 3.0833 73.0384 2.87545C73.2006 2.6676 73.3627 2.49439 73.5654 2.32118C73.7681 2.14797 73.9708 1.97476 74.214 1.87084C74.4572 1.76691 74.7005 1.66299 74.9842 1.5937C75.268 1.52442 75.5518 1.48978 75.8355 1.48978C76.2814 1.48978 76.6868 1.55906 77.0922 1.69763C77.457 1.8362 77.8219 2.04405 78.1056 2.28654ZM78.1867 5.4043C78.3083 5.2311 78.3894 5.05789 78.4705 4.85004C78.5515 4.64218 78.5515 4.43433 78.5515 4.19184C78.5515 3.94935 78.5515 3.7415 78.4705 3.53365C78.3894 3.32579 78.3083 3.11794 78.1867 2.94473C78.0651 2.77152 77.9029 2.59832 77.7408 2.45975C77.5786 2.32118 77.3759 2.18261 77.1733 2.07869C76.9706 1.97476 76.7679 1.87084 76.5247 1.83619C76.2814 1.80155 76.0382 1.76691 75.795 1.76691C75.5518 1.76691 75.3085 1.76691 75.0653 1.83619C74.8221 1.90548 74.6194 1.97476 74.4167 2.07869C74.2779 2.14984 74.1582 2.23723 74.0314 2.32973C73.973 2.37235 73.9131 2.41605 73.8492 2.45975C73.6465 2.59832 73.5249 2.73688 73.4033 2.94473C73.2816 3.15259 73.2006 3.32579 73.1195 3.53365C73.079 3.7415 73.0384 3.98399 73.0384 4.19184C73.0384 4.39969 73.0384 4.60754 73.1195 4.81539C73.2006 5.02324 73.2816 5.2311 73.4033 5.4043C73.5249 5.57751 73.687 5.75072 73.8492 5.88929C74.0113 6.02786 74.214 6.16642 74.4167 6.27035C74.6194 6.37428 74.8221 6.44356 75.0653 6.51284C75.3085 6.54749 75.5518 6.58213 75.795 6.58213C76.0382 6.58213 76.2814 6.58213 76.5247 6.51284C76.5686 6.49781 76.6145 6.48278 76.6615 6.46739C76.831 6.41186 77.0145 6.35173 77.1733 6.27035C77.3759 6.16642 77.5786 6.02786 77.7408 5.88929C77.9435 5.75072 78.0651 5.57751 78.1867 5.4043Z" fill="#00AB55"/>
</svg>

<svg width="80" height="30" fill="none" xmlns="http://www.w3.org/2000/svg"><path fill-rule="evenodd" clip-rule="evenodd" d="M39.148.001c10.135 0 19.661 1.524 26.836 4.296 7.337 2.806 11.35 6.616 11.35 10.704 0 4.088-4.013 7.864-11.35 10.704-7.175 2.772-16.701 4.296-26.836 4.296-10.134 0-19.66-1.524-26.836-4.296C5.016 22.9.962 19.09.962 15.001c0-4.088 4.013-7.864 11.35-10.704C19.488 1.525 29.014 0 39.148 0Zm-36.97 15c0 7.69 16.58 13.96 36.97 13.96s36.97-6.27 36.97-13.96c0-7.69-16.58-13.96-36.97-13.96S2.178 7.31 2.178 15Zm68.145-6.582c-.608.104-1.297.138-2.067.173 0-.381-.122-.727-.365-1.005-.244-.277-.608-.52-1.095-.658a5.866 5.866 0 0 0-1.662-.242c-1.216 0-2.23.242-3 .762-1.094.693-1.946 1.974-2.513 3.81h-1.54l-.122.347h1.58L55.893 23.21c1.094-.139 2.31-.208 3.607-.243l3.568-11.362h2.716l-1.946 5.716c-.122.38-.203.762-.203 1.074 0 .554.203 1.004.568 1.35.365.347.932.486 1.662.486.77 0 1.419-.174 1.946-.555.527-.346.932-.866 1.216-1.524l.365-.935h-.365l-.325.727c-.162.381-.364.693-.648.936-.284.242-.527.38-.81.38-.285 0-.406-.138-.406-.38 0-.104 0-.208.04-.312l2.392-6.963h2.027l.04-.347H69.35l.973-2.84ZM64.93 9.978c.284.207.69.312 1.176.312h.04l-.324.935H63.107l.73-2.252c.284-.866.567-1.42.973-1.697.243-.174.567-.278.973-.278.162 0 .324.035.527.104-.568.174-.973.45-1.297.797a1.738 1.738 0 0 0-.487 1.213c-.04.38.122.692.405.866ZM11.705 19.4c-.08-.069-.121-.208-.121-.38 0-.174.04-.451.162-.832l2.635-8.453c.121-.416.284-.727.405-.935.122-.208.325-.312.568-.416.243-.07.608-.104 1.094-.138l.081-.347c-.973.035-2.23.035-3.73.035-1.62 0-2.796 0-3.526-.035l-.122.347c.325 0 .609.034.811.069a.807.807 0 0 1 .406.173.558.558 0 0 1 .121.381c0 .173-.04.45-.162.832l-2.635 8.452a4.125 4.125 0 0 1-.405.936c-.162.207-.325.346-.568.415-.243.07-.567.104-1.054.139l-.08.346c.77-.035 1.945-.035 3.526-.035 1.621 0 2.878 0 3.73.035l.08-.346c-.324 0-.608-.035-.81-.07-.162-.034-.325-.069-.406-.173Zm34.782-6.443c0 .416.122.762.324 1.04.244.276.527.38.933.38.284 0 .567-.069.77-.208.203-.138.365-.346.486-.588.122-.243.163-.486.163-.728 0-.693-.325-1.212-.973-1.524-.649-.312-1.46-.45-2.432-.45-.852 0-1.582.103-2.19.346-.608.208-1.053.52-1.337.935a2.188 2.188 0 0 0-.446 1.317c0 .277.04.588.162.831.081.277.203.52.365.728.067.085.14.195.227.323v.001c.124.182.272.402.462.646.365.52.649.97.851 1.385.203.416.284.797.284 1.143 0 .381-.122.693-.405.936-.284.242-.608.346-1.014.346-.284 0-.486-.035-.689-.139.081-.138.162-.277.243-.485.04-.103.081-.198.122-.294.04-.095.08-.19.121-.294.081-.208.081-.416.081-.659 0-.45-.121-.796-.364-1.073a1.205 1.205 0 0 0-.933-.416c-.08 0-.162 0-.243.035.446-.936.69-1.837.69-2.737 0-.936-.284-1.663-.893-2.148-.608-.485-1.5-.762-2.634-.762-1.5 0-2.757.346-3.811 1.004-.365.243-.73.52-1.013.797v-.138c0-.312-.082-.59-.244-.832a1.642 1.642 0 0 0-.648-.589c-.284-.138-.649-.208-1.054-.208-.446 0-.811.07-1.135.174-.325.138-.649.311-.933.623a4.274 4.274 0 0 0-.81 1.143v-.311c0-.485-.163-.866-.446-1.178-.284-.312-.77-.45-1.42-.45-.729 0-1.337.138-1.823.415.04-.138.08-.277.162-.416-1.095.139-2.27.243-3.608.243l-.243.727c-.081-.658-.487-.97-1.257-.97-.932 0-1.865.381-2.878 1.109-1.014.727-1.824 1.663-2.513 2.806-.69 1.143-1.014 2.217-1.014 3.291 0 .693.203 1.213.608 1.593.406.347 1.014.555 1.865.555.689 0 1.297-.139 1.784-.45.405-.243.81-.52 1.094-.901l-.973 2.736c-.203.693-.486 1.144-.77 1.351-.203.14-.446.208-.77.208-.096 0-.193-.021-.309-.047l-.097-.022c.446-.139.77-.346 1.054-.658.244-.277.365-.624.365-.97a.85.85 0 0 0-.324-.693 2.201 2.201 0 0 0-.973-.242c-.324 0-.649.069-.892.207-.243.139-.486.312-.608.52-.162.208-.203.416-.203.658 0 .312.082.59.284.797l.02.025c.194.232.359.429.75.53.365.138.933.311 1.46.311h.284c2.675-.381 3.85-.693 5.107-4.642l.053-.159c.265-.793.278-.832 2.339-6.735.162-.104.324-.173.486-.173.162 0 .244.104.244.277 0 .071-.02.159-.045.274a8.33 8.33 0 0 0-.037.177l-2.432 7.378h3.527l1.46-4.78c.445-1.178.891-2.079 1.297-2.668.405-.589.81-.935 1.135-1.074.324-.138.73-.208 1.135-.208.04 0 .162.035.284.07-.406.07-.77.208-1.095.415-.324.208-.608.45-.81.763a1.675 1.675 0 0 0-.285.935c0 .416.122.727.365.97.244.208.608.312 1.095.312.324 0 .608-.035.851-.139a5.974 5.974 0 0 0-.69 2.806c0 .936.285 1.628.893 2.148.608.485 1.5.762 2.635.762 1.5 0 2.756-.346 3.81-1.004a5.517 5.517 0 0 0 1.338-1.11c.04.728.365 1.283 1.054 1.594.69.347 1.58.52 2.635.52.851 0 1.58-.104 2.148-.346.608-.243 1.054-.52 1.338-.936.324-.38.446-.831.446-1.281 0-.381-.081-.763-.243-1.178-.162-.416-.487-.936-.933-1.56-.059-.1-.162-.24-.292-.415-.048-.064-.1-.134-.153-.208-.203-.277-.365-.554-.527-.831-.163-.277-.203-.554-.203-.832 0-.45.121-.796.365-1.004.243-.243.608-.347 1.054-.347.202 0 .364.035.486.07-.162.138-.324.38-.446.658 0 .114-.018.242-.036.38-.022.155-.045.32-.045.486Zm-25.539-.485-1.54 4.4c-.324.83-.608 1.385-.892 1.697-.283.312-.527.485-.77.485a.396.396 0 0 1-.365-.208c-.08-.139-.08-.381-.08-.693 0-.97.202-1.94.567-2.944.405-1.005.85-1.836 1.378-2.495.527-.658.973-.97 1.378-.97.243 0 .365.174.365.486 0 .069 0 .138-.04.242Zm16.824 3.187a13.56 13.56 0 0 1-1.46 3.014c-.567.831-1.013 1.212-1.378 1.212a.288.288 0 0 1-.284-.208c-.08-.138-.08-.38-.08-.727 0-1.005.202-2.113.648-3.291.405-1.212.932-2.252 1.5-3.083.567-.866 1.054-1.282 1.418-1.282.122 0 .203.07.244.208.04.139.08.381.08.797a14.22 14.22 0 0 1-.688 3.36Zm20.59-1.836c0 .935-.243 1.905-.77 2.91-.527 1.005-1.338 1.836-2.351 2.529-1.054.658-2.31 1.005-3.81 1.005-1.136 0-2.028-.278-2.636-.763-.608-.52-.892-1.212-.892-2.147 0-.97.244-1.94.77-2.945.528-1.005 1.298-1.836 2.352-2.494 1.054-.658 2.31-1.005 3.81-1.005 1.136 0 2.027.277 2.635.762.608.485.892 1.213.892 2.148Zm-5.391 4.85a13.563 13.563 0 0 0 1.46-3.014c.404-1.212.607-2.356.688-3.36 0-.416-.04-.658-.08-.797-.041-.139-.123-.208-.244-.208-.365 0-.851.416-1.419 1.282-.567.831-1.094 1.87-1.5 3.083-.446 1.178-.648 2.286-.648 3.291 0 .347 0 .589.08.728.041.138.163.207.284.207.365 0 .811-.38 1.379-1.212ZM76.482 4.504 76.36 4.4c.325-.069.527-.173.69-.346a.86.86 0 0 0 .243-.589c0-.312-.122-.554-.365-.693-.243-.173-.649-.242-1.135-.242h-1.338v3.36h.77V4.574h.325c.08 0 .121 0 .162.034.015.013.03.022.044.029.021.01.037.02.037.04l.81 1.109c.041.07.122.104.244.104h.73l-.933-1.247a.353.353 0 0 1-.124-.1.43.43 0 0 0-.038-.039Zm-.405-.415c-.122.034-.244.034-.406.034h-.486V3.015h.567c.163 0 .284 0 .365.034l.243.104c.04.035.122.104.122.173.04.07.04.139.04.243 0 .104 0 .173-.04.242a.746.746 0 0 1-.122.174c-.04.034-.162.069-.283.104Zm2.029-1.802c.283.242.527.52.689.866.162.311.243.692.243 1.108 0 .381-.081.728-.243 1.074a2.978 2.978 0 0 1-.69.866c-.283.243-.607.45-1.013.589a3.8 3.8 0 0 1-1.257.208c-.283 0-.567-.035-.85-.104a4.829 4.829 0 0 1-.771-.277 2.482 2.482 0 0 1-.649-.416c-.202-.173-.405-.346-.527-.554a3.484 3.484 0 0 1-.324-.658 2.282 2.282 0 0 1-.121-.728c0-.242.04-.485.121-.727.081-.243.203-.45.324-.659.163-.207.325-.38.527-.554.203-.173.406-.346.649-.45.243-.104.487-.208.77-.277.284-.07.568-.104.852-.104a3.8 3.8 0 0 1 1.256.208c.365.138.73.346 1.014.589Zm.08 3.117c.122-.173.203-.346.284-.554.082-.208.082-.416.082-.658 0-.243 0-.45-.082-.658-.08-.208-.162-.416-.283-.59a2.726 2.726 0 0 0-.446-.484 3.046 3.046 0 0 0-.568-.381c-.202-.104-.405-.208-.648-.243-.244-.034-.487-.07-.73-.07s-.487 0-.73.07-.446.139-.648.243c-.14.07-.259.158-.386.25a7.21 7.21 0 0 1-.182.13 1.377 1.377 0 0 0-.446.486 3.9 3.9 0 0 0-.284.589c-.04.208-.08.45-.08.658 0 .208 0 .416.08.623.082.208.163.416.284.59.122.173.284.346.446.484.162.139.365.277.568.381.202.104.405.174.648.243.243.034.487.07.73.07s.486 0 .73-.07l.136-.046a3.59 3.59 0 0 0 .512-.197c.203-.104.406-.242.568-.38.203-.14.324-.312.446-.486Z" fill="#00AB55"/></svg>
